X: 1
P: Da New Rigged Ship
C: Trad., from T. Anderson "Ringing Strings"
C: Arr. by T. Traub 6-27-03
R: reel
M: 4/4
L: 1/8
K: Am
eg|"Am"a2 ab ageg|"Am"a2 ab agef|"G"g2 gg fgag|"D"f2 d2 d2 eg|"Am"a2 ab ageg|"Am"a2 ab agef|"G"g2 gg fgag|"D"f2 d2 d2 ed||
K: A
"A"cAcA "E"B2 ed|"A"cAcA E2 ed|"A"cAcA "E"B2 ed|"A"c2 A2 A2 ed|"A"cAcA "E"B2 ed|"A"cAcA E2 ed|"A"cAcA "E"B2 ed|"A"c2 A2 A2 ||
K: Am
|: AB| "Am"cdec "G"BcdB|"Am"ABAF "Em"GF E2|"Am"cdec "E"BcdB|"Am"c2 A2 A2 AB|"Am"cdec "G"BcdB|"Am"ABAF "Em"GF E2|"Am"cdec "E"BcdB|"Am"c2 A2 A2 :|
